X: 1
T: Da Scallowa Lasses
M: 4/4
L: 1/8
R: reel
K: Amin
|: eaag egdB | c2 ec gcec | eaag egdB | cABG A4 :|
|: BE E2 c2 cA | dcde f2 ed | eaag egdB | cABG A4 :|
